X:36
T: Graf und Nonne (Die Nonne)
N: Q0155i
O: Mitteleuropa, Oesterreich / Italien, Suedtirol, Brixen, Vals
R: Ballade, Standesunterschied, vergebliche Werbung, Liebe, Klage, Tod
M: 6/8
L: 1/8
K: G
D | BBBBAB | cAz3
F | ccccBc | d2z3
g | f2ec2e | e2dB2
d | d2cd2c | B2z3
g | f2ec2e | e2dB2
d | d2cd2c | B2z3

@@@ Tune index: 1746
